resources/haticons/SVG/border_color.svg

<!-- Generated by IcoMoon.io -->
<svg version="1.1" xmlns="http://www.w3.org/2000/svg" width="24" height="24" viewBox="0 0 24 24">
<title>border_color</title>
<path d="M0 20.016h24v3.984h-24v-3.984zM20.719 4.031l-1.969 1.969-3.75-3.75 1.969-1.969q0.281-0.281 0.703-0.281t0.703 0.281l2.344 2.344q0.281 0.281 0.281 0.703t-0.281 0.703zM17.766 6.984l-10.031 10.031h-3.75v-3.75l10.031-10.031z"></path>
</svg>

<svg xmlns="http://www.w3.org/2000/svg" width="24" height="24"><path d="M0 20.016h24V24H0v-3.984zM20.719 4.031L18.75 6 15 2.25 16.969.281Q17.25 0 17.672 0t.703.281l2.344 2.344q.281.281.281.703t-.281.703zm-2.953 2.953L7.735 17.015h-3.75v-3.75L14.016 3.234z"/></svg>
